assets/gcpcloudtranslationapi/original.svg

<svg height="24" width="24" xmlns="http://www.w3.org/2000/svg"><path d="m17.91 10.2h-1.82l-4.09 10.8h1.82l1-2.7h4.32l1 2.7h1.86zm-2.39 6.3 1.48-3.9 1.48 3.9z" fill="#4285f4"/><path d="m12.79 14.77-2.31-2.26a15.6 15.6 0 0 0 3.4-5.91h2.67v-1.8h-6.37v-1.8h-1.82v1.8h-6.36v1.79h10.15a14.1 14.1 0 0 1 -2.88 4.82 14.6 14.6 0 0 1 -2.1-3h-1.82a16 16 0 0 0 2.71 4.1l-4.62 4.49 1.29 1.3 4.54-4.5 2.83 2.8z" fill="#669df6" fill-rule="evenodd"/></svg>

<svg xmlns="http://www.w3.org/2000/svg" width="24" height="24"><path fill="#4285f4" d="M17.91 10.2h-1.82L12 21h1.82l1-2.7h4.32l1 2.7H22zm-2.39 6.3L17 12.6l1.48 3.9z"/><path fill="#669df6" fill-rule="evenodd" d="m12.79 14.77-2.31-2.26a15.6 15.6 0 0 0 3.4-5.91h2.67V4.8h-6.37V3H8.36v1.8H2v1.79h10.15a14.1 14.1 0 0 1-2.88 4.82 14.6 14.6 0 0 1-2.1-3H5.35a16 16 0 0 0 2.71 4.1L3.44 17l1.29 1.3 4.54-4.5 2.83 2.8z"/></svg>
